X:1
T:Title
%%score { ( 1 3 5 ) | ( 2 4 6 7 ) }
L:1/8
M:3/4
K:Bb
V:1 treble nm="Grand Piano"
V:3 treble 
V:5 treble 
V:2 treble 
V:4 treble 
V:6 treble 
V:7 treble 
V:1
 z2 z[Q:1/4=90] d d_d | c4 z2 | [DF]4 z2 | AB cG d>c |[M:7/16] B-[_DB-][=DB]3/2 |[M:3/8] dd_d | %6
[M:3/4] c4 z2 | [DF]4 z2 | [EF]4 z2 | B,B, B,d [Fd]_d | c4 z2 | [DF]4 z2 | [EF]4 z2 | %13
 z B, B,B [Bd]B | A4[K:bass][K:treble] z2 | [B,G]4 z2 | d4[K:bass][K:treble] z2 | %17
[M:47/32] G/4-G/4-G/-<G/ z/4 z/4 z/4 z/4 z/4 z/4 z/4 z/4 z/4 z/4 z/4 z/4 z/4 z/4 z/4 z/4 z/ d3/4 z/4 z/4 z/4 z/4 z/4 z/4 z/4 z/4 z/4 z/4 z/4 z/4 z/4 z/4 z/4 z/4 z/4 z/4 z/ | %18
[M:3/4] (9:8:10c-c/8-[A,c]-[A,c-]/8 [A,c]-[A,c]/8G-G/8 A3/2G3/4 | %19
 (7:8:8[B,D-F-]3/4[B,DF]-[B,D-F-]/8[B,DF]3/4F3/4[B,DG]-[B,DG]/8F3/4 | (3F3- [A,F]3 c3 | %21
[M:2/4] [DB]3- [DB]/4 z/4 z/ |[M:4/4] (5:4:5B2 A/ G/-G3/2D/ z2 D2 | %23
 (9:8:8G/B3/2 A2 E/ G-[EG-][EG]/- [EG]2 |[M:2/4] (5:4:4FF3/2 AA3/2 | (5:4:4AB3/2 c[=EG]3/2 | %26
[M:7/8] z2 c- c- c2- c/4 z/4 z/ |[M:1/4] z2 | (3:2:2B2 A |[M:4/4] z4 z2 (3G/B/- B2 | %30
 (5:4:4A2 E/ G-[EG-]3/2 G2- G/4 z/4 z/ z |[M:2/4] (5:4:4AA3/2 AB3/2 | %32
 (7:8:6c3/4[=EG]/4-[EG]3/4 [_Ed]/4-[Ed][Ec]/[Q:1/4=87][Q:1/4=84][Q:1/4=82][Q:1/4=79][Q:1/4=76][Q:1/4=73][Q:1/4=70] | %33
[M:5/8] B- B3- [=DB] |] %34
V:2
 z2 z F F=E | E-[F,E-] [F,E]E .[F,CE]>E | B,,B,, B,,D B,,D | [CE][B,D] [B,=E]-[C,B,E] [F,A,_E]2 | %4
[M:7/16] F, z/ z/ z/ z |[M:3/8][K:treble] FF=E |[M:3/4][K:bass] E-[F,E-] [F,E]E .[F,CE]>E | %7
 B,,B,, B,,D B,,D | F,F, .F,2 F,^F | B,,B,, B,,F [B,,B,]=E | E-[F,E-] [F,E]E .[F,CE]>E | %11
 B,,B,, B,,D B,,D | F,F, F,2 [F,A,E]2 | [B,,F,B,][B,,F,] [B,,F,]D [A,,G,]D | %14
 C-[D,C-] [D,C]C [D,^F,C]D | G,,G,, G,,B, [G,,G,]E | D-[D,D-] [D,D]2 [D,A,C]2 | %17
[M:47/32] z/4 z/4 z/4 z/4 z/4 z/4 z/4 z/4 z/ A,3/4 z/4 z/4 z/4 z/ C3/4[K:treble] z/4 E3/4 z/4 z/ A3/4 z/4 z/ =F/4-F/4-F/-<F/ z/4[K:bass] z/4 z/4 z/4 z/4 z/ | %18
[M:3/4] (9:8:10[F,A,E]-[F,A,E-]/8[F,E]-[F,E-]/8 [F,E]-[F,E]/8E-E/8 [F,CE]3/2E3/4 | %19
 (7:8:8B,,3/4B,,-B,,/8B,,3/4D3/4B,,-B,,/8D3/4 | %20
 (7:8:8F,3/4F,-F,/8F,3/8-F,-F,/8[F,A,E]3/8-[F,A,E]3/2 | %21
[M:2/4] (3:2:2[B,,F,B,]3/2[B,,F,]3/2 [B,,F,]-[B,,F,]/4 z/4 z/ | %22
[M:4/4] z4 (5:4:4[B,,B,][B,,B,]3/2 [B,,B,]/- [B,,B,]2 | %23
 z4 (5:4:4[F,A,E][F,A,]3/2 [F,A,]/- [F,A,]2 |[M:2/4] (5:4:4[F,A,E][F,A,E]3/2 [F,CE][F,CE]3/2 | %25
 (5:4:4[F,CE][F,B,D]3/2 [G,B,=E][C,B,]3/2 |[M:7/8] z2 E- E- E3- |[M:1/4] E3/2-E/4 z/4 | z2 | %29
[M:4/4] z2 (3:2:2[B,,B,]3/2[B,,B,]3/2 [B,,B,]2- [B,,B,]/4 z/4 z/ z | %30
 z2 (3:2:2[F,A,E]3/2[F,A,]3/2 z2 (3:2:2[F,A,E]3/2[F,A,E]3/2 | %31
[M:2/4] (5:4:4[F,CE][F,CE]3/2 [F,CE][F,B,D]3/2 | %32
 (7:8:6[G,B,=E]3/4[C,B,]/4-[C,B,]3/4 [F,A,]/4-[F,A,][F,A,]/ |[M:5/8] z2 G,- G,/4 z/4 z/ z |] %34
V:3
 x6 | z A, A,G A>G | B,B, B,F [B,DG]F | x6 |[M:7/16] D z/ z/ z/ z |[M:3/8] x3 | %6
[M:3/4] z A, A,G A>G | B,B, B,F [B,DG]F | A,A, .A,2 .[A,EG]2 | [DF]4 z2 | z A, A,G A>G | %11
 B,B, B,F [B,DG]F | A,A, A,2 c2 | [DB]4 z2 | z[K:bass] ^F, F,[K:treble]D AB | G,G, G,G [DB]c | %16
 z[K:bass] ^F, F,2[K:treble] ^F2 | %17
[M:47/32] (9:8:42B,-B,3/8-B,3/32[A,G]-[A,G]3/8-[A,G]3/32F/-F3/16-F3/64 z/ z3/16 z3/64 G/-G3/16-G3/64-[GA]/-[GA]3/16-[G-A]3/64[GB]/-[GB]3/16-[GB]3/64c/-c3/16-c3/64e/-e3/16-e3/64f/-f3/16-f3/64e/- e3/16-e3/64d-d3/8-d3/32[Fd]/-[Fd]3/16-[Fd]3/64_d-d3/8-d3/32 | %18
[M:3/4] x6 | x6 | E4- E/4 z/4 z/ z |[M:2/4] (3z z/ B,3/2 z2 |[M:4/4] z4 F4- | F3/2-F/4 z/4 z2 z4 | %24
[M:2/4] x4 | x4 |[M:7/8] d-d/4 z/4 z/ z z z2 F- |[M:1/4] F3/2-F/4 z/4 | x2 | %29
[M:4/4] (5:4:4G2 D/ [DF-][DF-]3/2 F2- F/4 z/4 z/ z | z4 z2 (3:2:2F3/2F3/2 |[M:2/4] x4 | x4 | %33
[M:5/8] z2 E- E/4 z/4 z/ z |] %34
V:4
 x6 | .[F,A,]2 z2 z2 | x6 | F,2 .G,2 z2 |[M:7/16] B,,-[B,,=E,][B,,F,]3/2 |[M:3/8][K:treble] x3 | %6
[M:3/4][K:bass] .[F,A,]2 z2 z2 | x6 | x6 | x6 | .[F,A,]2 z2 z2 | x6 | x6 | x6 | .[D,^F,]2 z2 z2 | %15
 x6 | .[D,^F,]2 z2 z2 | %17
[M:47/32] (7:8:36[G,,G,]-[G,,G,]3/8-[G,,G,]3/32 [F,,F,]2- [F,,F,]3/16-[F,,F,]/64B,/-B,3/16-B,3/64D/-[K:treble]D3/16-D3/64F/-F3/16-F3/64G/-G3/16-G3/64G/- G3/16-G3/64^F/4-F3/32-F/64 z/4 z3/32 z/64 z/ z3/16 z3/64 [B,,B,]/-[K:bass][B,,B,]3/16-[B,,B,]3/64=E/-E3/16-E3/64 | %18
[M:3/4] x6 | x6 | x6 |[M:2/4] x4 |[M:4/4] x8 | x8 |[M:2/4] x4 | x4 | %26
[M:7/8] [C,B,] z [F,A,]- [F,A,]- [F,A,]3- |[M:1/4] [F,A,]2- | [F,A,]/4 z/4 z/ z |[M:4/4] x8 | %30
 z4 [F,A,]2- [F,A,]/4 z/4 z/ z |[M:2/4] x4 | x4 |[M:5/8] z z z2 F, |] %34
V:5
 x6 | x6 | x6 | x6 |[M:7/16] x7/2 |[M:3/8] x3 |[M:3/4] x6 | x6 | x6 | x6 | x6 | x6 | x6 | x6 | %14
 x[K:bass] x2[K:treble] x3 | x6 | x[K:bass] x3[K:treble] x2 |[M:47/32] x11 |[M:3/4] x6 | x6 | %20
 (3:2:2A,3/2A,3/2 z2 z2 |[M:2/4] z2 B,-B,/4 z/4 z/ |[M:4/4] z4 (3:2:2D3/2D3/2 z2 | x8 |[M:2/4] x4 | %25
 x4 |[M:7/8] =E[E_d]-[Ed]/4 z/4 z/ z z z2 |[M:1/4] x2 | x2 |[M:4/4] z4 D2- D/4 z/4 z/ z | %30
 z4 E2- E/4 z/4 z/ z |[M:2/4] x4 | x4 |[M:5/8] [B,D]2- [B,D]/4 z/4 z/ _D-D/4 z/4 z/ |] %34
V:6
 x6 | x6 | x6 | x6 |[M:7/16] x7/2 |[M:3/8][K:treble] x3 |[M:3/4][K:bass] x6 | x6 | x6 | x6 | x6 | %11
 x6 | x6 | x6 | x6 | x6 | x6 |[M:47/32] x5[K:treble] x151/30[K:bass] x107/64 |[M:3/4] x6 | x6 | %20
 x6 |[M:2/4] x4 |[M:4/4] x8 | x8 |[M:2/4] x4 | x4 |[M:7/8] z [C,B,]-[C,B,]/4 z/4 z/ z z z2 | %27
[M:1/4] x2 | x2 |[M:4/4] x8 | x8 |[M:2/4] x4 | x4 |[M:5/8] z z2 =E,-E,/4 z/4 z/ |] %34
V:7
 x6 | x6 | x6 | x6 |[M:7/16] x7/2 |[M:3/8][K:treble] x3 |[M:3/4][K:bass] x6 | x6 | x6 | x6 | x6 | %11
 x6 | x6 | x6 | x6 | x6 | x6 |[M:47/32] x5[K:treble] x151/30[K:bass] x107/64 |[M:3/4] x6 | x6 | %20
 x6 |[M:2/4] x4 |[M:4/4] x8 | x8 |[M:2/4] x4 | x4 |[M:7/8] x7 |[M:1/4] x2 | x2 |[M:4/4] x8 | x8 | %31
[M:2/4] x4 | x4 |[M:5/8] B,,-B,,- B,,3 |] %34

